!!!COM: Palestrina, Giovanni Perluigi da
!!!OPR: Dum complerentur
!!!OTL: Sanctus
**kern	**kern	**kern	**kern	**kern	**kern
*Ibass	*Itenor	*Itenor	*Icalto	*Icalto	*Icant
!Bassus	!Tenor 2	!Tenor 1	!Altus 2	!Altus 1	!Cantus
*clefF4	*clefGv2	*clefGv2	*clefG2	*clefG2	*clefG2
*k[b-]	*k[b-]	*k[b-]	*k[b-]	*k[b-]	*k[b-]
*F:ion	*F:ion	*F:ion	*F:ion	*F:ion	*F:ion
*M4/2	*M4/2	*M4/2	*M4/2	*M4/2	*M4/2
=1	=1	=1	=1	=1	=1
0r	1r	0r	0r	1r	0cc
.	[1f	.	.	[1a	.
=2	=2	=2	=2	=2	=2
0r	2f]	0r	0r	2a]	0cc
.	4e	.	.	4g	.
.	4d	.	.	4f	.
.	2e	.	.	2g	.
.	2f	.	.	2a	.
=3	=3	=3	=3	=3	=3
0r	1B-	0r	2r	1f	1dd
.	.	.	1b-	.	.
.	2F	.	.	2.f	1cc
.	[2f	.	4a	.	.
.	.	.	4g	4e	.
=4	=4	=4	=4	=4	=4
0r	4f]	0r	2a	4d	2.ff
.	4e	.	.	4c	.
.	4d	.	2.b-	2B-	.
.	4c	.	.	.	4ee
.	2B-	.	.	2.f	2dd
.	.	.	4f	.	.
.	2F	.	2a	.	2cc
.	.	.	.	4e	.
=5	=5	=5	=5	=5	=5
0r	2G	0r	2g	2d	2b-
.	2A	.	1f	2c	2a
.	2B-	.	.	2r	1g
.	2c	.	2e	[2cc	.
=6	=6	=6	=6	=6	=6
0r	1F	0c	2.a	4cc]	2f
.	.	.	.	4b-	.
.	.	.	.	2a	2.ff
.	.	.	4b-	.	.
.	1r	.	2cc	1g	.
.	.	.	.	.	8ee
.	.	.	.	.	8dd
.	.	.	[2cc	.	2ee
=7	=7	=7	=7	=7	=7
1.F	2r	[0c	4cc]	1a	2ff
.	.	.	4b-	.	.
.	1A	.	4a	.	4f
.	.	.	4g	.	4g
.	.	.	2f	1r	4a
.	.	.	.	.	4b-
4E	4G	.	[2g	.	4cc
4D	4F	.	.	.	4dd
=8	=8	=8	=8	=8	=8
2E	2G	1c]	2g]	0r	1cc
2F	2A	.	2f	.	.
2BB-	1B-	1d	1f	.	1b-
[2B-	.	.	.	.	.
=9	=9	=9	=9	=9	=9
2B-]	1.F	1c	0r	0f	1.cc
4A	.	.	.	.	.
4G	.	.	.	.	.
2A	.	2.f	.	.	.
2B-	[2B-	.	.	.	2dd
.	.	4e	.	.	.
=10	=10	=10	=10	=10	=10
1F	4B-]	2d	0r	0f	2.ff
.	8A	.	.	.	.
.	8G	.	.	.	.
.	2A	2c	.	.	.
.	.	.	.	.	4ee
1r	2B-	2B-	.	.	2dd
.	2c	2A	.	.	[2cc
=11	=11	=11	=11	=11	=11
1r	1d	1G	0g	2g	2cc]
.	.	.	.	2d	2b
2r	1c	1r	.	1e	1cc
[2c	.	.	.	.	.
=12	=12	=12	=12	=12	=12
2c]	1G	1r	0g	2.d	1.dd
4B	.	.	.	.	.
4A	.	.	.	4c	.
2B	1g	2r	.	2d	.
2c	.	[2c	.	2e	2cc
=13	=13	=13	=13	=13	=13
1F	1f	2c]	1a	1c	1cc
.	.	4B	.	.	.
.	.	4A	.	.	.
2G	2d	2B	1g	2r	1r
[2c	2e	2c	.	2g	.
=14	=14	=14	=14	=14	=14
4c]	2f	1.F	2.cc	2.a	0r
4B-	.	.	.	.	.
4A	2.c	.	.	.	.
4G	.	.	4b-	4b-	.
2F	.	.	2a	2cc	.
.	4d	.	.	.	.
2E	2e	2G	2g	2c	.
=15	=15	=15	=15	=15	=15
2D	2f	4A	2f	2d	0r
.	.	4F	.	.	.
2C	2.g	1c	2e	4e	.
.	.	.	.	4f	.
1G	.	.	1d	1g	.
.	4f	.	.	.	.
.	2d	2B	.	.	.
=16	=16	=16	=16	=16	=16
1C	2e	1c	2.g	0r	2r
.	2e	.	.	.	2.cc
.	.	.	4e	.	.
1r	2c	2A	2f	.	.
.	.	.	.	.	4a
.	2d	2G	[2g	.	2b-
=17	=17	=17	=17	=17	=17
0r	2e	1c	4g]	0r	2.cc
.	.	.	4f	.	.
.	1A	.	4e	.	.
.	.	.	4d	.	4b-
.	.	1r	2c	.	4a
.	.	.	.	.	4g
.	2B-	.	2d	.	2f
=18	=18	=18	=18	=18	=18
0r	2G	1r	2e	2r	2g
.	2F	.	2f	2.cc	1a
.	1r	2.f	1d	.	.
.	.	.	.	4a	.
.	.	.	.	2b-	2f
.	.	4d	.	.	.
=19	=19	=19	=19	=19	=19
0r	0r	2e	2c	2.cc	2g
.	.	2.f	2cc	.	4a
.	.	.	.	4b-	4b-
.	.	.	2f	4a	2cc
.	.	4e	.	4g	.
.	.	4d	2a	[2f	[2dd
.	.	4c	.	.	.
=20	=20	=20	=20	=20	=20
0r	1r	2B-	2b-	2f]	2dd]
.	.	2c	2g	2e	2cc
.	2.c	1F	2a	2f	1cc
.	.	.	[2f	2a	.
.	4A	.	.	.	.
=21	=21	=21	=21	=21	=21
1r	2B-	0r	2f]	1g	2r
.	4c	.	2e	.	2.cc
.	4B-	.	.	.	.
2.F	4A	.	1f	2.a	.
.	4G	.	.	.	4cc
.	2A	.	.	.	2dd
4D	.	.	.	4f	.
=22	=22	=22	=22	=22	=22
2E	2G	2.c	0r	2g	4cc
.	.	.	.	.	4b-
2.F	2F	.	.	2.a	4a
.	.	4c	.	.	4g
.	2A	2c	.	.	1f
4E	.	.	.	4g	.
4D	[2B-	[2d	.	4f	.
4C	.	.	.	4e	.
=23	=23	=23	=23	=23	=23
2BB-	4B-]	2d]	0r	4d	1f
.	4A	.	.	4e	.
2D	2F	2B-	.	1f	.
2C	1G	2c	.	.	2.cc
2C	.	2c	.	2e	.
.	.	.	.	.	4cc
=24	=24	=24	=24	=24	=24
1F	1A	2c	2.cc	2f	1a
.	.	2.f	.	2a	.
.	.	.	4a	.	.
1r	2d	.	2b-	2f	1r
.	.	4d	.	.	.
.	2c	2e	[2cc	2g	.
=25	=25	=25	=25	=25	=25
0r	1F	2.f	4cc]	1a	1r
.	.	.	4b-	.	.
.	.	.	4a	.	.
.	.	4e	4g	.	.
.	1r	4d	2a	2r	2.ff
.	.	4c	.	.	.
.	.	2B-	2d	[2b-	.
.	.	.	.	.	4dd
=26	=26	=26	=26	=26	=26
1r	0r	2G	2g	4b-]	2ee
.	.	.	.	4g	.
.	.	2F	2c	2a	2.ff
2r	.	2.B-	1d	[1b-	.
.	.	.	.	.	4ee
[2B-	.	.	.	.	4dd
.	.	4c	.	.	4cc
=27	=27	=27	=27	=27	=27
4B-]	2r	2d	1r	2b-]	2b-
4G	.	.	.	.	.
2A	2.f	2c	.	2a	2cc
2B-	.	2d	2r	2.g	2b-
.	4d	.	.	.	.
2c	2e	2c	[2cc	.	2g
.	.	.	.	4g	.
=28	=28	=28	=28	=28	=28
1F	2.f	1c	2cc]	1f	2a
.	.	.	2a	.	2cc
.	4e	.	.	.	.
1r	4d	2.f	2a	1r	2dd
.	4c	.	.	.	.
.	2B-	.	2b-	.	2dd
.	.	4d	.	.	.
=29	=29	=29	=29	=29	=29
0r	2c	2e	2g	1r	2cc
.	2d	1f	2f	.	2b
.	1c	.	1g	2r	2.cc
.	.	2e	.	[2cc	.
.	.	.	.	.	4cc
=30	=30	=30	=30	=30	=30
2.c	1F	2f	2a	4cc]	2a
.	.	.	.	4cc	.
.	.	2f	2cc	2a	1ff
4A	.	.	.	.	.
2B-	1r	2d	4b-	1g	.
.	.	.	4a	.	.
[2c	.	2e	4g	.	4ee
.	.	.	4f	.	4dd
=31	=31	=31	=31	=31	=31
4c]	0r	2e	2g	2c	4ee
4B-	.	.	.	.	4dd
4A	.	2e	2c	2.cc	4cc
4G	.	.	.	.	4b-
2F	.	2.f	1c	.	4a
.	.	.	.	4b-	4b-
2F	.	.	.	2a	4cc
.	.	4e	.	.	4a
=32	=32	=32	=32	=32	=32
2G	1r	2d	0r	2g	2b
2A	.	2c	.	2f	1cc
1G	2r	2d	.	2.g	.
.	[2g	2d	.	.	2b
.	.	.	.	4f	.
=33	=33	=33	=33	=33	=33
2.C	4g]	[0c	2r	2e	[0cc
.	4f	.	.	.	.
.	2.e	.	2.cc	2g	.
4D	.	.	.	.	.
2E	.	.	.	2g	.
.	4d	.	4b-	.	.
[2F	4c	.	4a	2f	.
.	4B-	.	4g	.	.
=34	=34	=34	=34	=34	=34
2F]	4A	0c]	2f	2a	0cc]
.	4F	.	.	.	.
2E	2.c	.	2g	2g	.
1F	.	.	2a	1f	.
.	4B-	.	.	.	.
.	2A	.	[2f	.	.
=35	=35	=35	=35	=35	=35
0C	0G	[0c	2f]	0g	[0cc
.	.	.	4e	.	.
.	.	.	4d	.	.
.	.	.	1e	.	.
=36	=36	=36	=36	=36	=36
0F	0F	0c]	0f	0a	0cc]
*	*	*	*	*-	*-
!! Pleni
*Ibass	*Itenor	*Icalto	*Icalto
!Bassus	!Tenor	!Altus 2	!Altus 1
*clefF4	*clefGv2	*clefG2	*clefG2
*k[b-]	*k[b-]	*k[b-]	*k[b-]
*F:ion	*F:ion	*F:ion	*F:ion
*M4/2	*M4/2	*M4/2	*M4/2
=37	=37	=37	=37
1r	1c	0r	0r
1F	[1f	.	.
=38	=38	=38	=38
2A	2f]	0r	0r
2B-	2d	.	.
1c	1e	.	.
=39	=39	=39	=39
2A	2.c	0r	0r
2.c	.	.	.
.	4d	.	.
.	1e	.	.
4B-	.	.	.
4A	.	.	.
4G	.	.	.
=40	=40	=40	=40
4F	2.f	1r	0r
4E	.	.	.
4D	.	.	.
4C	4e	.	.
2BB-	4d	1f	.
.	4c	.	.
[2B-	4B-	.	.
.	4A	.	.
=41	=41	=41	=41
4B-]	2G	1.b-	0r
4A	.	.	.
4G	2.d	.	.
4F	.	.	.
1G	.	.	.
.	4c	.	.
.	4d	2g	.
.	4e	.	.
=42	=42	=42	=42
1.F	2.f	1a	2r
.	.	.	2f
.	4e	.	.
.	4d	2.f	2a
.	4c	.	.
2D	[2f	.	2b-
.	.	4g	.
=43	=43	=43	=43
1C	2f]	2a	1cc
.	2e	2g	.
1r	[1f	2.cc	2a
.	.	.	[2cc
.	.	4b-	.
=44	=44	=44	=44
0r	1f]	4a	4cc]
.	.	4g	4b-
.	.	4f	4a
.	.	4e	4g
.	1r	4d	4f
.	.	4e	4e
.	.	4f	4d
.	.	4g	4e
=45	=45	=45	=45
0r	1F	4a	4f
.	.	4b-	4g
.	.	1cc	2.a
.	2A	.	.
.	.	.	4g
.	2B-	4b-	[2f
.	.	4a	.
=46	=46	=46	=46
1C	1c	1g	2f]
.	.	.	2e
[1F	2.A	2c	1f
.	.	2f	.
.	4B-	.	.
=47	=47	=47	=47
2F]	2c	2a	1r
2D	2d	2b-	.
2E	4c	1cc	2r
.	4B-	.	.
[2F	4A	.	2c
.	4G	.	.
=48	=48	=48	=48
4F]	0F	1.a	1.f
4E	.	.	.
4D	.	.	.
4C	.	.	.
1D	.	.	.
.	.	2b-	2d
=49	=49	=49	=49
0C	2G	2cc	1e
.	4c	2.g	.
.	4d	.	.
.	4e	.	2.c
.	4f	4f	.
.	[2g	4e	.
.	.	4d	4d
=50	=50	=50	=50
2r	4g]	0c	2e
.	4e	.	.
4F	1a	.	1f
4G	.	.	.
4A	.	.	.
4B-	.	.	.
[2c	4g	.	4e
.	4f	.	4d
=51	=51	=51	=51
2c]	2e	2r	2c
2B-	2.d	2.g	2d
1A	.	.	2e
.	4c	4g	.
.	[2c	2f	2c
=52	=52	=52	=52
1G	2c]	2.g	1d
.	2B	.	.
.	.	4f	.
2r	1c	4e	1g
.	.	4d	.
[2c	.	[2e	.
=53	=53	=53	=53
4c]	2.g	4e]	0r
4c	.	4c	.
2B	.	2d	.
.	4g	.	.
4c	2g	1e	.
4B-	.	.	.
4A	[2a	.	.
4G	.	.	.
=54	=54	=54	=54
4F	2a]	2f	2r
4E	.	.	.
4D	2f	1a	2.cc
4C	.	.	.
1D	2r	.	.
.	.	.	4cc
.	[2f	4g	2b
.	.	4f	.
=55	=55	=55	=55
1C	4f]	1g	2.cc
.	4f	.	.
.	2e	.	.
.	.	.	4b-
1r	4f	1r	4a
.	4e	.	4g
.	4d	.	4f
.	4c	.	4e
=56	=56	=56	=56
0r	4B-	2r	4d
.	4A	.	4c
.	4A	2.cc	2f
.	8G	.	.
.	8F	.	.
.	1G	.	2e
.	.	4cc	.
.	.	2b	2d
=57	=57	=57	=57
1r	0A	4cc	0c
.	.	4b-	.
.	.	4a	.
.	.	4g	.
2r	.	4f	.
.	.	4e	.
[2c	.	4e	.
.	.	8d	.
.	.	8c	.
=58	=58	=58	=58
4c]	1G	1d	2.g
4c	.	.	.
2B	.	.	.
.	.	.	4f
4c	1r	[1c	4e
4B-	.	.	4d
4A	.	.	4c
4G	.	.	4B-
=59	=59	=59	=59
4F	0r	1c]	4A
4E	.	.	4G
4D	.	.	1c
4C	.	.	.
1D	.	2r	.
.	.	[2f	2B
=60	=60	=60	=60
1C	1r	4f]	2c
.	.	4f	.
.	.	2e	2g
[1F	2r	4f	2a
.	.	4g	.
.	[2f	4a	4cc
.	.	4b-	4b-
=61	=61	=61	=61
2F]	4f]	2.cc	4a
.	4f	.	4f
2C	2e	.	2g
.	.	4b-	.
[1D	4f	4a	[1f
.	4e	4g	.
.	4d	4f	.
.	4c	4e	.
=62	=62	=62	=62
1D]	4B-	4d	2f]
.	4A	4e	.
.	4G	1f	2B-
.	4F	.	.
1C	1G	.	1c
.	.	2e	.
=63	=63	=63	=63
0F	0A	0f	0c
*-	*-	*-	*-
!! Hosanna
**kern	**kern	**kern	**kern	**kern	**kern
*Ibass	*Itenor	*Itenor	*Icalto	*Icalto	*Icant
!Bassus	!Tenor 2	!Tenor 1	!Altus 2	!Altus 1	!Cantus
*clefF4	*clefGv2	*clefGv2	*clefG2	*clefG2	*clefG2
*k[b-]	*k[b-]	*k[b-]	*k[b-]	*k[b-]	*k[b-]
*F:ion	*F:ion	*F:ion	*F:ion	*F:ion	*F:ion
*M4/2	*M4/2	*M4/2	*M4/2	*M4/2	*M4/2
=64	=64	=64	=64	=64	=64
0C	0c	2.e	0g	0cc	0ee
.	.	4f	.	.	.
.	.	2g	.	.	.
.	.	2c	.	.	.
=65	=65	=65	=65	=65	=65
0F	0c	2A	0a	1cc	0ff
.	.	4F	.	.	.
.	.	4G	.	.	.
.	.	4A	.	[1f	.
.	.	4B-	.	.	.
.	.	2c	.	.	.
=66	=66	=66	=66	=66	=66
2BB-	1B-	2d	2b-	0f]	1dd
1B-	.	2B-	2.f	.	.
.	1F	2c	.	.	1cc
.	.	.	4g	.	.
2A	.	[2f	2a	.	.
=67	=67	=67	=67	=67	=67
1B-	2r	4f]	2.d	2r	2dd
.	.	4e	.	.	.
.	1B-	2d	.	2.f	2b-
.	.	.	4e	.	.
1F	.	1c	1f	.	2cc
.	.	.	.	4g	.
.	2A	.	.	2a	[2ff
=68	=68	=68	=68	=68	=68
2.BB-	1B-	2r	2r	2.d	4ff]
.	.	.	.	.	4ee
.	.	1B-	2.f	.	1dd
4C	.	.	.	4e	.
4D	[1F	.	.	1f	.
4E	.	.	4g	.	.
2F	.	2A	2a	.	[2cc
=69	=69	=69	=69	=69	=69
1BB-	1F]	2B-	2.d	2r	2cc]
.	.	2d	.	2.f	1b-
.	.	.	4e	.	.
1F	2r	1c	1f	.	.
.	.	.	.	4g	.
.	2f	.	.	2a	2a
=70	=70	=70	=70	=70	=70
0BB-	4f	1B-	1f	2.d	2.b-
.	4e	.	.	.	.
.	4d	.	.	.	.
.	4c	.	.	4e	4cc
.	2B-	2.F	1b-	[1f	1dd
.	2B-	.	.	.	.
.	.	4G	.	.	.
=71	=71	=71	=71	=71	=71
0F	4c	2.A	2a	2f]	2cc
.	4B-	.	.	.	.
.	4A	.	4cc	2c	2.f
.	4G	4B-	4b-	.	.
.	2A	[1c	4a	2f	.
.	.	.	4g	.	4g
.	2A	.	[2f	2f	4a
.	.	.	.	.	4b-
=72	=72	=72	=72	=72	=72
0C	0G	0c]	2f]	0g	0cc
.	.	.	4e	.	.
.	.	.	4d	.	.
.	.	.	1e	.	.
=73	=73	=73	=73	=73	=73
0F	0F	0c	0f	0a	0cc
==	==	==	==	==	==
*-	*-	*-	*-	*-	*-
!!!CDT: 1525/^1526/-1594/2/2
!!!OCY: Italia
!!!AGN: Mass (Parody)
!!!AST: renaissance, vocal
!!!ASW: Motet 1569 (Palestrina)
!!!PWK: Masses, Book 8
!!!RNB: Cadence finals: C
!!!YOR: Le Opere Complete, v. 24, p. 117
!!!YOO: Rome, Italy: Fratelli Scalera
!!!END: 1992//
!!!EED: John Miller
!!!YEC: Copyright 2000, John Miller
!!!YEN: United States of America
!!!YEM: Rights to all derivative electronic formats reserved.
!!!YEM: Refer to licensing agreement for further details.
!!!YEM: This file must be accompanied by the licensing agreement.
!!!YEM: A copy of the licensing agreement may be found at http://www.music-cog.ohio-state.edu/HumdrumDatabases/Palestrina/license.txt
!!!EMD: converted to Humdrum by Bret Aarden
